X: 87
T: Missa Ista est speciosa / Agnus Dei
N: Derived from Rue1018e-Missa_Ista_est_speciosa-Agnus.krn
C: Pierre de la Rue
%%abc-version 2.0
%%abcx-abcm2ps-target-version 5.9.1 (29 Sep 2008)
%%abc-creator hum2abc beta
%%abcx-conversion-date 2019/02/17 08:01:13
%%abc-edited-by Jesse Rodin
%%abc-edited-by Chris Gage 05-21-2013
%%abcx-initial-encoding-date 2013/08/03/
%%humdrum-veritas 1924474828
%%humdrum-veritas-data 4239535911
%%linebreak <none>
%%barnumbers 0
L: 1/4
M: 3/1
Q: 1/2=120
V: 1 clef=treble
V: 2 clef=treble-8
V: 3 clef=treble-8
V: 4 clef=bass
V: 5 clef=bass
K: C
[V:1] z12 | 
[V:2] E3FGAB4A2- | 
[V:3] z12 | 
[V:4] z12 | 
[V:5] E,6D,2E,2C,2 | 
[V:1] z4z4E3F | 
[V:2] A2G2A2c4BA | 
[V:3] z12 | 
[V:4] z4E,8 | 
[V:5] D,2E,2A,,8 | 
[V:1] GAB3EA4G2 | 
[V:2] G4z4z4 | 
[V:3] B12 | 
[V:4] E,2G,4F,E,F,2G,2 | 
[V:5] E,6D,C,D,2E,2 | 
[V:1] A2c4BAG4 | 
[V:2] z2E2E3FGAB2- | 
[V:3] A8B4 | 
[V:4] E,2A,4G,F,E,4 | 
[V:5] A,,8z4 | 
[V:1] z12 | 
[V:2] B2G3ABcd2c2- | 
[V:3] B8z4 | 
[V:4] z2E,3F,G,A,B,2A,2- | 
[V:5] z12 | 
[V:1] z2E2E3FGAB2- | 
[V:2] c2B2A2GFE4 | 
[V:3] z12 | 
[V:4] A,G,G,2A,4B,4 | 
[V:5] E,,4A,,4G,,2E,,2- | 
[V:1] B2G3ABcd2c2- | 
[V:2] z12 | 
[V:3] z12 | 
[V:4] B,2C4B,A,G,2A,2- | 
[V:5] E,,2E,4D,C,B,,2A,,2- | 
[V:1] c2B2A2GFE2A2- | 
[V:2] z12 | 
[V:3] c8c4 | 
[V:4] A,2G,2A,8 | 
[V:5] A,,2E,2F,2E,D,C,2F,,2- | 
[V:1] AGFEF2E4D2 | 
[V:2] z2c4c2A2B2 | 
[V:3] A6G2F4 | 
[V:4] z12 | 
[V:5] F,,2F,,G,,A,,B,,C,2D,4 | 
[V:1] E8z4 | 
[V:2] c4c4B2G2 | 
[V:3] E12 | 
[V:4] z2A,4A,2G,2E,2 | 
[V:5] A,,8E,,4 | 
[V:1] z2c4c2A2B2 | 
[V:2] A2c3BAGA2G2- | 
[V:3] z12 | 
[V:4] F,2E,4E,4D,2- | 
[V:5] A,,4C,6B,,2 | 
[V:1] c4B2G2A2c2- | 
[V:2] G^F^F2G4z4 | 
[V:3] z12 | 
[V:4] D,2C,2D,3E,F,G,A,2 | 
[V:5] A,,4G,,4z4 | 
[V:1] cBAGA2G4^F2 | 
[V:2] z12 | 
[V:3] E8D4 | 
[V:4] G,2C2C3B,A,4 | 
[V:5] z2A,,3B,,C,2D,4 | 
[V:1] G12 | 
[V:2] z2d2e2dcB2e2- | 
[V:3] G8G4 | 
[V:4] G,4z4z4 | 
[V:5] G,,4C,4G,,2C,2- | 
[V:1] z12 | 
[V:2] edcBA2G4^F2 | 
[V:3] A2c4B2A4 | 
[V:4] z4z4C,4 | 
[V:5] C,B,,A,,G,,F,,2G,,2A,,4 | 
[V:1] z2D2E2DCB,2E2- | 
[V:2] G12 | 
[V:3] B4z4z4 | 
[V:4] D,4C,2G,3F,E,D, | 
[V:5] G,,4C,4G,,2C,2- | 
[V:1] EDCB,A,2G,2C4 | 
[V:2] z4z4E4 | 
[V:3] e8e4 | 
[V:4] C,3D,E,4C,4 | 
[V:5] C,B,,A,,G,,C,4C,4 | 
[V:1] B,12 | 
[V:2] G4D2G3AB2 | 
[V:3] d8d4 | 
[V:4] D,8D,4 | 
[V:5] G,,12 | 
[V:1] z4z4E4 | 
[V:2] c2A4GFE4 | 
[V:3] c12 | 
[V:4] E,8G,4- | 
[V:5] C,12 | 
[V:1] G4D2G3AB2 | 
[V:2] z12 | 
[V:3] B12 | 
[V:4] G,12 | 
[V:5] G,,12 | 
[V:1] c4c2A4GF | 
[V:2] z12 | 
[V:3] A12 | 
[V:4] F,4F,2F,3G,A,B, | 
[V:5] z12 | 
[V:1] E2A4G3^FF2 | 
[V:2] z4z4c4 | 
[V:3] z2A2B4c4 | 
[V:4] C2F,2G,4A,4 | 
[V:5] z12 | 
[V:1] G12 | 
[V:2] B2G4FED3E | 
[V:3] d8d4 | 
[V:4] G,4z4z4 | 
[V:5] G,,8G,,4 | 
[V:1] z4z4c4 | 
[V:2] F2G4F2E4 | 
[V:3] d2e4d4^c2 | 
[V:4] z12 | 
[V:5] D,2C,4D,2A,,2C,2 | 
[V:1] B2G4FED3E | 
[V:2] D12 | 
[V:3] d8z4 | 
[V:4] G,8G,4 | 
[V:5] G,,8G,,A,,B,,C, | 
[V:1] F2G4F2E4 | 
[V:2] z12 | 
[V:3] z4z2d4c2 | 
[V:4] F,2D,3E,F,G,A,4 | 
[V:5] D,2G,,2D,4A,,4 | 
[V:1] D4z4z4 | 
[V:2] z2A2F2G2A4 | 
[V:3] B2A4G2F4 | 
[V:4] D,4z2D,4C,2 | 
[V:5] z2D,4G,,2D,2A,,2 | 
[V:1] z2A2F2G2A2F2 | 
[V:2] G2E2F2E4D2 | 
[V:3] E4z4z2A2 | 
[V:4] E,3D,C,2B,,2A,,4 | 
[V:5] C,3B,,A,,2G,,2F,,4 | 
[V:1] G4F2E3DD2 | 
[V:2] E4z4z4 | 
[V:3] B2c2d2B4A2- | 
[V:4] z2E,2D,2E,2F,4 | 
[V:5] E,,4z4z4 | 
[V:1] E8z4 | 
[V:2] z2B2c3BA2G2 | 
[V:3] AGG2A4z4 | 
[V:4] E,4z2E,2F,2G,2 | 
[V:5] E,,4A,,3G,,F,,2E,,2 | 
[V:1] z4z2B2c3B | 
[V:2] F2E2D4E4 | 
[V:3] z4z2d2c2A2 | 
[V:4] A,2A,4G,2A,2E,2 | 
[V:5] A,,2C,2B,,4A,,3G,, | 
[V:1] A2G2F2E2D2ED | 
[V:2] z4z4z2B2 | 
[V:3] c3BAGFEF4 | 
[V:4] z2E,2F,2C,2D,4 | 
[V:5] F,,2E,,2A,,4z2D,2 | 
[V:1] E12 | 
[V:2] c3BA2e4dc | 
[V:3] E12 | 
[V:4] A,,2C,3D,E,F,G,4 | 
[V:5] C,2A,,4G,,F,,E,,4 | 
[V:1] E12 ||  
[V:2] B4B8 ||  
[V:3] E12 ||  
[V:4] G,12 ||  
[V:5] E,,12 ||  
[V:1]  [K:C] [K:clef=treble][M:2/1]z8 | 
[V:2]  [K:C] [K:clef=treble-8][M:2/1]z4A4 | 
[V:3]  [K:C] [K:clef=treble-8][M:2/1]z8 | 
[V:4]  [K:C] [K:clef=bass][M:2/1]z8 | 
[V:5]  [K:C] [K:clef=bass][M:2/1]A,,8 | 
[V:1] z8 | 
[V:2] A4c3d | 
[V:3] z8 | 
[V:4] z8 | 
[V:5] A,,8 | 
[V:1] z8 | 
[V:2] e8- | 
[V:3] c8 | 
[V:4] z8 | 
[V:5] z4A,,4 | 
[V:1] z8 | 
[V:2] e8 | 
[V:3] c8 | 
[V:4] z4E,4 | 
[V:5] A,,4C,3D, | 
[V:1] E4E4 | 
[V:2] z4e4- | 
[V:3] B8- | 
[V:4] E,4G,3A, | 
[V:5] E,8- | 
[V:1] G3AB4 | 
[V:2] e2dcB2e2- | 
[V:3] B8 | 
[V:4] B,4G,4 | 
[V:5] E,8 | 
[V:1] c8 | 
[V:2] e2c4A2 | 
[V:3] A4c4- | 
[V:4] A,8 | 
[V:5] z4A,,4 | 
[V:1] c8 | 
[V:2] c3de4- | 
[V:3] c2B2A4 | 
[V:4] z4E,4 | 
[V:5] A,,4C,3D, | 
[V:1] B8- | 
[V:2] e2dcB2E2 | 
[V:3] G8 | 
[V:4] E,4G,3A, | 
[V:5] E,8- | 
[V:1] B8 | 
[V:2] e4e4 | 
[V:3] G8 | 
[V:4] B,4E,4 | 
[V:5] E,8 | 
[V:1] A4c4- | 
[V:2] c8- | 
[V:3] A8 | 
[V:4] F,6E,D, | 
[V:5] z4A,,4- | 
[V:1] c2B2A4 | 
[V:2] c4d4 | 
[V:3] A8 | 
[V:4] C,4F,4 | 
[V:5] A,,2G,,2F,,4 | 
[V:1] G8 | 
[V:2] e6B2 | 
[V:3] B8 | 
[V:4] G,4E,4 | 
[V:5] E,,8 | 
[V:1] G8 | 
[V:2] e2dcB4 | 
[V:3] z8 | 
[V:4] G,4G,4 | 
[V:5] z4E,4 | 
[V:1] A8 | 
[V:2] A2d4A2 | 
[V:3] z8 | 
[V:4] D,3E,F,G,A,2- | 
[V:5] F,4D,4- | 
[V:1] A8 | 
[V:2] d2cBA4 | 
[V:3] z8 | 
[V:4] A,2G,3^F,F,2 | 
[V:5] D,4D,4 | 
[V:1] B6G2- | 
[V:2] G4z2e2- | 
[V:3] z8 | 
[V:4] G,8- | 
[V:5] G,,3A,,B,,2C,2- | 
[V:1] G2FED2G2- | 
[V:2] e2dcB2e2- | 
[V:3] z8 | 
[V:4] G,8 | 
[V:5] C,D,E,F,G,2C,2 | 
[V:1] GFE4DC | 
[V:2] e2c3de2 | 
[V:3] z8 | 
[V:4] G,8- | 
[V:5] C,8 | 
[V:1] B,2G3FE2- | 
[V:2] d2e3dcB- | 
[V:3] z8 | 
[V:4] G,8 | 
[V:5] z2C,4C,2 | 
[V:1] E2D2E2C2 | 
[V:2] B2B2c2AB | 
[V:3] z8 | 
[V:4] z8 | 
[V:5] D,4C,2F,2- | 
[V:1] D2F3EDC | 
[V:2] AGFED2G2- | 
[V:3] d8- | 
[V:4] z8 | 
[V:5] F,E,D,3C,B,,A,, | 
[V:1] B,2C3B,B,2 | 
[V:2] G2FED4 | 
[V:3] d8 | 
[V:4] G,4G,4 | 
[V:5] G,,8 | 
[V:1] C8 | 
[V:2] C8 | 
[V:3] e8 | 
[V:4] E,3F,G,2A,2- | 
[V:5] z4z2A,,2- | 
[V:1] z8 | 
[V:2] z8 | 
[V:3] e8- | 
[V:4] A,2G,2A,2C2 | 
[V:5] A,,2C,4A,,2 | 
[V:1] G4G4 | 
[V:2] z4G4 | 
[V:3] e8 | 
[V:4] B,4E,4 | 
[V:5] E,8 | 
[V:1] E3FG2A2- | 
[V:2] A4G2F2 | 
[V:3] c8- | 
[V:4] z8 | 
[V:5] A,,4z2A,,2- | 
[V:1] A2G2A2c2 | 
[V:2] E6F2 | 
[V:3] c8 | 
[V:4] z4z2A,2- | 
[V:5] A,,2C,4A,,2 | 
[V:1] B4E2A2- | 
[V:2] D4E4 | 
[V:3] d4c4 | 
[V:4] A,2G,2A,4 | 
[V:5] B,,4A,,4 | 
[V:1] A2G2A4 | 
[V:2] e8- | 
[V:3] B4A4 | 
[V:4] E,4z2A,2 | 
[V:5] z4z2A,,2- | 
[V:1] E4z2A2 | 
[V:2] e8 | 
[V:3] c8 | 
[V:4] G,2E,3F,G,A, | 
[V:5] A,,2C,4B,,A,, | 
[V:1] G2E3FGA | 
[V:2] z4e4- | 
[V:3] B8- | 
[V:4] B,2G,2G,4 | 
[V:5] E,8 | 
[V:1] B2G2G4 | 
[V:2] e2dcB2e2 | 
[V:3] B8 | 
[V:4] z2G,4F,E, | 
[V:5] E,8 | 
[V:1] z2G4FE | 
[V:2] d2e2c4 | 
[V:3] z8 | 
[V:4] F,2E,4D,C, | 
[V:5] z2C,4E,2 | 
[V:1] F2E4D2 | 
[V:2] B2c2A2B2- | 
[V:3] z8 | 
[V:4] D,2E,2F,4 | 
[V:5] D,2C,4B,,2 | 
[V:1] E2C2B,4 | 
[V:2] BAA4^G2 | 
[V:3] e8- | 
[V:4] E,8 | 
[V:5] C,2A,,2E,4 | 
[V:1] A,4z4 | 
[V:2] A4E4 | 
[V:3] e8 | 
[V:4] z4z2G,2- | 
[V:5] A,,4z2E,2- | 
[V:1] z8 | 
[V:2] z8 | 
[V:3] c4d4 | 
[V:4] G,2A,4F,2- | 
[V:5] E,2F,4D,2- | 
[V:1] z8 | 
[V:2] z8 | 
[V:3] B4c4 | 
[V:4] F,2G,4E,2- | 
[V:5] D,2E,4C,2- | 
[V:1] E8- | 
[V:2] z8 | 
[V:3] A4B4 | 
[V:4] E,2A,4G,2 | 
[V:5] C,2A,,2E,4 | 
[V:1] E8 | 
[V:2] c8 | 
[V:3] A8 | 
[V:4] A,4E,4 | 
[V:5] A,,8 | 
[V:1] D8 | 
[V:2] B3cA4 | 
[V:3] z8 | 
[V:4] G,3A,F,4 | 
[V:5] z4D,4 | 
[V:1] G8- | 
[V:2] G8- | 
[V:3] E8- | 
[V:4] E,6D,C, | 
[V:5] E,2C,4B,,A,, | 
[V:1] G8 | 
[V:2] G8 | 
[V:3] E8 | 
[V:4] B,,4C,4 | 
[V:5] G,,4E,,4 | 
[V:1] A8 | 
[V:2] z4d4 | 
[V:3] D8 | 
[V:4] A,,8 | 
[V:5] F,,8 | 
[V:1] G8- | 
[V:2] e6dc | 
[V:3] G8- | 
[V:4] B,,8- | 
[V:5] E,,8- | 
[V:1] G8 | 
[V:2] B4e4- | 
[V:3] G8 | 
[V:4] B,,8 | 
[V:5] E,,8 | 
[V:1] E4F4- | 
[V:2] e2c6 | 
[V:3] A8 | 
[V:4] z8 | 
[V:5] z8 | 
[V:1] F2E2E4- | 
[V:2] d2B4c2- | 
[V:3] G4E4 | 
[V:4] z8 | 
[V:5] z8 | 
[V:1] E4D4 | 
[V:2] cBAGA4 | 
[V:3] F8 | 
[V:4] z8 | 
[V:5] z8 | 
[V:1] E8- | 
[V:2] z2B2c2B2- | 
[V:3] E8- | 
[V:4] B,,4E,3D, | 
[V:5] E,,8 | 
[V:1] E8 | 
[V:2] BAA4^G2 | 
[V:3] E8 | 
[V:4] C,2B,,A,,B,,4 | 
[V:5] E,,8 | 
[V:1] z8 | 
[V:2] A2E3FGA | 
[V:3] z8 | 
[V:4] A,,2C,3D,E,F, | 
[V:5] A,,4C,4 | 
[V:1] z8 | 
[V:2] B2G4^F2 | 
[V:3] z8 | 
[V:4] G,2D,4C,2 | 
[V:5] G,,2B,,2A,,4 | 
[V:1] B8- | 
[V:2] G2d4e2- | 
[V:3] z8 | 
[V:4] D,4z2G,2- | 
[V:5] G,,8- | 
[V:1] B8 | 
[V:2] e2dcd4 | 
[V:3] z8 | 
[V:4] G,2F,E,D,2G,2 | 
[V:5] G,,8 | 
[V:1] c8 | 
[V:2] c8 | 
[V:3] z8 | 
[V:4] E,3F,G,2A,2- | 
[V:5] C,3D,E,2F,2- | 
[V:1] A8 | 
[V:2] z8 | 
[V:3] z8 | 
[V:4] A,2F,3G,A,2 | 
[V:5] F,2D,3E,F,2 | 
[V:1] G8- | 
[V:2] d8 | 
[V:3] B8- | 
[V:4] B,2G,4G,2- | 
[V:5] G,4G,,4 | 
[V:1] G8 | 
[V:2] d4d2e2- | 
[V:3] B8 | 
[V:4] G,2F,E,D,2G,2 | 
[V:5] z4G,,4 | 
[V:1] z4c4- | 
[V:2] edcBA4- | 
[V:3] c8 | 
[V:4] E,2F,4E,D, | 
[V:5] A,,4F,,4- | 
[V:1] c4c4 | 
[V:2] A2G2F2E2 | 
[V:3] A8 | 
[V:4] C,8 | 
[V:5] F,,4F,,4 | 
[V:1] B4G4 | 
[V:2] D2E4C2- | 
[V:3] G8 | 
[V:4] z8 | 
[V:5] G,,4E,,4 | 
[V:1] A8 | 
[V:2] C2F3GA2- | 
[V:3] z4c4- | 
[V:4] C,8- | 
[V:5] F,,8 | 
[V:1] A4G2A2- | 
[V:2] AFF2G2F2- | 
[V:3] c4c4- | 
[V:4] C,8 | 
[V:5] F,,4E,,2F,,2- | 
[V:1] A2GFE2A2- | 
[V:2] F2EDE2F2 | 
[V:3] c4c4 | 
[V:4] C,4C,4 | 
[V:5] F,,G,,A,,B,,C,2F,,2 | 
[V:1] A2G2G4- | 
[V:2] D4d4- | 
[V:3] B4G4 | 
[V:4] G,6F,E, | 
[V:5] G,,4G,,4 | 
[V:1] G2^FEF4 | 
[V:2] d4d4 | 
[V:3] A8 | 
[V:4] D,4z2D,2 | 
[V:5] D,8 | 
[V:1] G8- | 
[V:2] B2e4d2- | 
[V:3] G8- | 
[V:4] E,2G,4F,E, | 
[V:5] G,,8- | 
[V:1] G8 | 
[V:2] d2c3BB2 | 
[V:3] G8 | 
[V:4] D,2E,2D,4 | 
[V:5] G,,8 | 
[V:1] [M:3/1]z12 | 
[V:2] [M:3/1]c12 | 
[V:3] [M:3/1]E6F2G4 | 
[V:4] [M:3/1]C,6D,2E,4 | 
[V:5] [M:3/1]z12 | 
[V:1] z12 | 
[V:2] z12 | 
[V:3] A4B4c4 | 
[V:4] F,4G,4A,4 | 
[V:5] z12 | 
[V:1] z12 | 
[V:2] B6c2d4 | 
[V:3] d6c2B2A2 | 
[V:4] D,12 | 
[V:5] G,,6A,,2B,,4 | 
[V:1] z12 | 
[V:2] e4d4B4 | 
[V:3] A6^G2^G4 | 
[V:4] z12 | 
[V:5] C,4D,4E,4 | 
[V:1] E6F2G4 | 
[V:2] c12 | 
[V:3] A8G4 | 
[V:4] C,6D,2E,4 | 
[V:5] A,,8z4 | 
[V:1] A4B4c4 | 
[V:2] z12 | 
[V:3] c4B4A4 | 
[V:4] F,4G,4A,4 | 
[V:5] z12 | 
[V:1] B2G2B6A2 | 
[V:2] B6c2d4 | 
[V:3] d8d4 | 
[V:4] D,12 | 
[V:5] G,,6A,,2B,,4 | 
[V:1] A6^G2G4 | 
[V:2] e4d4B4 | 
[V:3] c4B8 | 
[V:4] z12 | 
[V:5] C,4D,4E,4 | 
[V:1] A4c6B2 | 
[V:2] c6d2e4 | 
[V:3] z4A4G4 | 
[V:4] E,8E,4 | 
[V:5] A,,6B,,2C,4 | 
[V:1] A4B6A2 | 
[V:2] A4d4G4 | 
[V:3] F4G4E4 | 
[V:4] F,4D,4B,,2C,2 | 
[V:5] D,4G,,6A,,2 | 
[V:1] G2F2E4A4- | 
[V:2] d4c4A4 | 
[V:3] D4G4F4 | 
[V:4] D,4E,4C,4 | 
[V:5] B,,4C,4F,,4- | 
[V:1] A2G2F2E2D4 | 
[V:2] c8B4 | 
[V:3] A6G2F4 | 
[V:4] A,,2B,,2C,4D,4 | 
[V:5] F,,2G,,2A,,4B,,4 | 
[V:1] E4G6F2 | 
[V:2] G6A2B4 | 
[V:3] G4E4E4- | 
[V:4] B,,4C,4B,,4 | 
[V:5] E,,6F,,2G,,4 | 
[V:1] E6D2D4 | 
[V:2] c4A8 | 
[V:3] E4F8 | 
[V:4] A,,4D,8 | 
[V:5] A,,4D,,8 | 
[V:1] E12- | 
[V:2] B4c6B2 | 
[V:3] E12- | 
[V:4] B,,4E,6D,2 | 
[V:5] z4A,,6B,,2 | 
[V:1] E12 | 
[V:2] A2G2A8 | 
[V:3] E12- | 
[V:4] C,2B,,2C,8 | 
[V:5] C,2D,2E,8 | 
[V:1] E12 |]  
[V:2] B12 |]  
[V:3] E12 |]  
[V:4] B,,12 |]  
[V:5] E,,12 |]  



